X: 789
P: Longways for as many as will
M: 6/4
L: 1/8
K: G
d3ed2 B2G2B2 | c3dB2 A4Bc | d3ed2 B2G2B2 | A3GF2 G4 |]\
c6- c3efg | a3ba2 e2a2g2 | f6 d3def |\
g2d2e2 d2B2G2 | g2d2e2 d2e2B2 | c3dB2 A4G2 | G6- G4 |]

